static/images/pieces/xiangqi/wikim/black_pawn.svg

<?xml version="1.0" encoding="UTF-8" standalone="no"?>
<svg
   width="100"
   height="100"
   version="1.1"
   id="svg796"
   sodipodi:docname="black_pawn.svg"
   viewBox="-6 -6 112 112"
   inkscape:version="1.2.2 (b0a8486541, 2022-12-01)"
   xmlns:inkscape="http://www.inkscape.org/namespaces/inkscape"
   xmlns:sodipodi="http://sodipodi.sourceforge.net/DTD/sodipodi-0.dtd"
   xmlns="http://www.w3.org/2000/svg"
   xmlns:svg="http://www.w3.org/2000/svg"
   xmlns:rdf="http://www.w3.org/1999/02/22-rdf-syntax-ns#"
   xmlns:cc="http://creativecommons.org/ns#"
   xmlns:dc="http://purl.org/dc/elements/1.1/">
  <defs
     id="defs800" />
  <sodipodi:namedview
     id="namedview798"
     pagecolor="#ffffff"
     bordercolor="#666666"
     borderopacity="1.0"
     inkscape:showpageshadow="2"
     inkscape:pageopacity="0.0"
     inkscape:pagecheckerboard="0"
     inkscape:deskcolor="#d1d1d1"
     showgrid="false"
     inkscape:zoom="2.36"
     inkscape:cx="50.211864"
     inkscape:cy="50"
     inkscape:window-width="1920"
     inkscape:window-height="1022"
     inkscape:window-x="0"
     inkscape:window-y="0"
     inkscape:window-maximized="1"
     inkscape:current-layer="svg796" />
  <title
     id="title788">卒</title>
  <!-- 此字型為全字庫正楷體，中華民國國家發展委員會，CNS11643中文標準交換碼全字庫網站，https://www.cns11643.gov.tw/。 -->
  <circle
     r="48.5"
     cx="50"
     cy="50"
     stroke-width="3"
     stroke="#000000"
     fill="#ffddaa"
     id="circle790" />
  <circle
     r="43.5"
     cx="50"
     cy="50"
     stroke-width="3"
     stroke="#000000"
     fill="none"
     id="circle792" />
  <path
     transform="translate(15,14)"
     fill="#000000"
     d="m 29.9,4.4 c -0.3,0.6 1.6,4.5 3.2,7 l 0.8,1.1 -3.8,0.4 c -2,0.3 -6.1,0.6 -9,0.7 -5.4,0.3 -6.4,0.6 -6.4,1.8 0,0.3 0.3,0.9 0.7,1.3 0.6,0.5 1.4,0.6 4.8,0.8 2.3,0 6.3,-0.1 9,-0.3 9.3,-0.8 22.4,-2.2 24.1,-2.5 3,-0.7 3.5,-2.6 1,-3.8 -2.2,-1.2 -3.9,-1.3 -6.9,-0.5 -1.5,0.4 -4,0.9 -5.6,1 L 39,11.6 V 9.8 C 39,8.3 38.9,7.9 37.8,6.8 37,6 35.6,5.2 34.2,4.7 31.4,3.7 30.2,3.6 29.9,4.4 m 13.7,12.3 c -0.1,0.1 -0.2,0.7 -0.2,1.3 0,2.3 -1.6,6.2 -5.1,12.8 -0.4,0.7 -0.7,1.3 -0.7,1.3 0,0.1 -1.1,-0.1 -2.4,-0.5 C 33.3,31.2 32.8,31.1 32.4,31.5 31.8,32 31.8,32 31.2,30.6 30.6,29 29,27.6 27,27 l -1.8,-0.6 1.6,-1.6 c 2.1,-2 2.8,-3.3 2.2,-4.1 -1,-1.2 -1.9,-1.8 -3.7,-2.4 -2.2,-0.7 -2.7,-0.4 -3,1.8 -0.3,2.9 -3.2,7.7 -7.6,12.4 -1.5,1.7 -1.7,3 -0.5,3.1 1,0.2 4.9,-2.3 7.2,-4.5 l 2,-2.1 0.9,1.6 c 1.1,1.8 3,3.6 4.2,3.9 1,0.3 2.2,-0.3 2.5,-1.2 0.6,-1.9 1.2,0 1.2,3.8 v 2.4 l -2.5,0.2 c -1.4,0.1 -5,0.4 -8,0.7 -3,0.3 -7.7,0.7 -10.5,0.8 -4.5,0.2 -5.1,0.3 -5.2,0.9 -0.2,0.9 1.5,2.6 3.3,3.3 1.8,0.6 3.4,0.5 10.3,-0.7 2.8,-0.5 6.8,-1 8.8,-1.1 l 3.8,-0.3 v 11.5 c -0.1,12.1 0,13.2 1.5,13.6 0.3,0.2 0.9,0.1 1.2,-0.2 1.7,-1.4 2.4,-5.4 2.9,-16.1 0.3,-4.9 0.5,-9 0.6,-9.1 0.1,0 5.7,-0.2 12.5,-0.3 6.7,-0.1 12.5,-0.3 12.9,-0.5 0.7,-0.3 1,-1.2 0.8,-2 -0.3,-0.8 -3.3,-2.2 -5.5,-2.7 -1.4,-0.3 -2.7,-0.3 -6.2,0.3 -2.4,0.3 -6.7,0.7 -9.4,0.9 -5.7,0.2 -5.6,0.3 -4.4,-2.7 0.4,-1.1 0.5,-1.6 0.2,-2.1 -0.3,-0.5 -0.1,-0.7 1.2,-1.7 0.9,-0.7 2.3,-1.9 3.1,-2.7 l 1.5,-1.6 2,2.4 c 4.2,4.8 7.6,5.3 8.1,1.3 0.3,-2.4 -2,-4.3 -6.3,-5.5 -1.2,-0.3 -2.1,-0.6 -2.2,-0.6 -0.1,-0.1 0.7,-1.4 1.8,-2.8 1,-1.4 1.9,-2.7 1.9,-2.9 0,-0.5 -1.9,-2 -3.4,-2.7 -1.6,-0.7 -2.9,-0.8 -3.4,-0.4"
     id="path794" />
  <metadata
     id="metadata16737">
    <rdf:RDF>
      <cc:Work
         rdf:about="">
        <dc:title>卒</dc:title>
      </cc:Work>
    </rdf:RDF>
  </metadata>
</svg>

<?xml version="1.0" encoding="UTF-8"?>
<svg width="100" height="100"
	xmlns="http://www.w3.org/2000/svg">
	<title>卒</title>
	<!-- 此字型為全字庫正楷體，中華民國國家發展委員會，CNS11643中文標準交換碼全字庫網站，https://www.cns11643.gov.tw/。 -->
	<circle r="48.5" cx="50" cy="50" stroke-width="3" stroke="#000" fill="#fda"/>
	<circle r="43.5" cx="50" cy="50" stroke-width="3" stroke="#000" fill="none"/>
	<path transform="translate(15,14)" fill="#000" d="M29.9 4.4 C29.6 5.0,31.5 8.9,33.1 11.4 L33.9 12.5 30.1 12.9 C28.1 13.2,24.0 13.5,21.1 13.6 C15.7 13.9,14.7 14.2,14.7 15.4 C14.7 15.7,15.0 16.3,15.4 16.7 C16.0 17.2,16.8 17.3,20.2 17.5 C22.5 17.5,26.5 17.4,29.2 17.2 C38.5 16.4,51.6 15.0,53.3 14.7 C56.3 14.0,56.8 12.1,54.3 10.9 C52.1 9.7,50.4 9.6,47.4 10.4 C45.9 10.8,43.4 11.3,41.8 11.4 L39.0 11.6 39.0 9.8 C39.0 8.3,38.9 7.9,37.8 6.8 C37.0 6.0,35.6 5.2,34.2 4.7 C31.4 3.7,30.2 3.6,29.9 4.4 M43.6 16.7 C43.5 16.8,43.4 17.4,43.4 18.0 C43.4 20.3,41.8 24.2,38.3 30.8 C37.9 31.5,37.6 32.1,37.6 32.1 C37.6 32.2,36.5 32.0,35.2 31.6 C33.3 31.2,32.8 31.1,32.4 31.5 C31.8 32.0,31.8 32.0,31.2 30.6 C30.6 29.0,29.0 27.6,27.0 27.0 L25.2 26.4 26.8 24.8 C28.9 22.8,29.6 21.5,29.0 20.7 C28.0 19.5,27.1 18.9,25.3 18.3 C23.1 17.6,22.6 17.9,22.3 20.1 C22.0 23.0,19.1 27.8,14.7 32.5 C13.2 34.2,13.0 35.5,14.2 35.6 C15.2 35.8,19.1 33.3,21.4 31.1 L23.4 29.0 24.3 30.6 C25.4 32.4,27.3 34.2,28.5 34.5 C29.5 34.8,30.7 34.2,31.0 33.3 C31.6 31.4,32.2 33.3,32.2 37.1 L32.2 39.5 29.7 39.7 C28.3 39.8,24.7 40.1,21.7 40.4 C18.7 40.7,14.0 41.1,11.2 41.2 C6.7 41.4,6.1 41.5,6.0 42.1 C5.8 43.0,7.5 44.7,9.3 45.4 C11.1 46.0,12.7 45.9,19.6 44.7 C22.4 44.2,26.4 43.7,28.4 43.6 L32.2 43.3 32.2 54.8 C32.1 66.9,32.2 68.0,33.7 68.4 C34.0 68.6,34.6 68.5,34.9 68.2 C36.6 66.8,37.3 62.8,37.8 52.1 C38.1 47.2,38.3 43.1,38.4 43.0 C38.5 43.0,44.1 42.8,50.9 42.7 C57.6 42.6,63.4 42.4,63.8 42.2 C64.5 41.9,64.8 41.0,64.6 40.2 C64.3 39.4,61.3 38.0,59.1 37.5 C57.7 37.2,56.4 37.2,52.9 37.8 C50.5 38.1,46.2 38.5,43.5 38.7 C37.8 38.9,37.9 39.0,39.1 36.0 C39.5 34.9,39.6 34.4,39.3 33.9 C39.0 33.4,39.2 33.2,40.5 32.2 C41.4 31.5,42.8 30.3,43.6 29.5 L45.1 27.9 47.1 30.3 C51.3 35.1,54.7 35.6,55.2 31.6 C55.5 29.2,53.2 27.3,48.9 26.1 C47.7 25.8,46.8 25.5,46.7 25.5 C46.6 25.4,47.4 24.1,48.5 22.7 C49.5 21.3,50.4 20.0,50.4 19.8 C50.4 19.3,48.5 17.8,47.0 17.1 C45.4 16.4,44.1 16.3,43.6 16.7 "/>
</svg>
